Sources/FrostedUI/Resources/Icons.xcassets/locationPin12.imageset/location-pin-12.svg

<svg width="12" height="12" viewBox="0 0 12 12" fill="none" xmlns="http://www.w3.org/2000/svg" data-fui-icon="true">
  <path
    d="M6 0C8.76142 0 11 2.23858 11 5C11 6.97041 9.76701 8.71452 8.6748 9.89062C8.11386 10.4946 7.55519 10.9862 7.1377 11.3262C6.92865 11.4964 6.75333 11.6297 6.62891 11.7217C6.56663 11.7677 6.51636 11.8034 6.48145 11.8281C6.46399 11.8405 6.45028 11.8506 6.44043 11.8574C6.43561 11.8608 6.4316 11.8632 6.42871 11.8652C6.42725 11.8662 6.42576 11.8675 6.4248 11.8682L6.42383 11.8691C6.42363 11.8693 6.42301 11.8693 6 11.25L6.42285 11.8691C6.16777 12.0434 5.83223 12.0434 5.57715 11.8691L6 11.25L5.57617 11.8691L5.5752 11.8682C5.57424 11.8675 5.57275 11.8662 5.57129 11.8652C5.5684 11.8632 5.56439 11.8608 5.55957 11.8574C5.54972 11.8506 5.53601 11.8405 5.51855 11.8281C5.48364 11.8034 5.43337 11.7677 5.37109 11.7217C5.24667 11.6297 5.07135 11.4964 4.8623 11.3262C4.44481 10.9862 3.88614 10.4946 3.3252 9.89062C2.23299 8.71452 1 6.97041 1 5C1 2.23858 3.23858 0 6 0ZM6 1.5C4.067 1.5 2.5 3.067 2.5 5C2.5 6.37675 3.39203 7.75802 4.4248 8.87012C4.9262 9.40998 5.43028 9.85325 5.80957 10.1621C5.87652 10.2166 5.94191 10.264 6 10.3096C6.05809 10.264 6.12348 10.2166 6.19043 10.1621C6.56972 9.85325 7.0738 9.40998 7.5752 8.87012C8.60797 7.75802 9.5 6.37675 9.5 5C9.5 3.067 7.933 1.5 6 1.5ZM6 3C7.10457 3 8 3.89543 8 5C8 6.10457 7.10457 7 6 7C4.89543 7 4 6.10457 4 5C4 3.89543 4.89543 3 6 3Z"
    fill="currentColor"
  />
</svg>

<svg xmlns="http://www.w3.org/2000/svg" width="12" height="12" fill="none" data-fui-icon="true" viewBox="0 0 12 12"><path fill="currentColor" d="M6 0a5 5 0 0 1 5 5c0 1.97-1.233 3.715-2.325 4.89a15.4 15.4 0 0 1-2.046 1.832l-.148.106-.04.03-.012.007-.004.003-.001.001L6 11.25l.423.62a.75.75 0 0 1-.846 0L6 11.25l-.424.62v-.002q-.002 0-.005-.003l-.011-.008-.041-.029-.148-.106A15.377 15.377 0 0 1 3.325 9.89C2.233 8.715 1 6.97 1 5a5 5 0 0 1 5-5m0 1.5A3.5 3.5 0 0 0 2.5 5c0 1.377.892 2.758 1.925 3.87.501.54 1.005.983 1.385 1.292q.102.08.19.148.088-.067.19-.148c.38-.309.884-.752 1.385-1.292C8.608 7.758 9.5 6.377 9.5 5A3.5 3.5 0 0 0 6 1.5M6 3a2 2 0 1 1 0 4 2 2 0 0 1 0-4"/></svg>
